X: 03081
T: Rachel Rae
C: John Lowe (about 1815)
R: reel
B: RSCDS 3-8
Z: 1997 by John Chambers <jc:trillian.mit.edu>
M: C|
L: 1/8
%--------------------
K: D
|: "D"D2FA d2Ac | d2fd "A7"e2cA | "D"d2Ad "G"BAGF | "A7"E2AE "D"FDD2 :|
|: "D"d2df a2fd | "Em"g2bg "A7"e2cA |1 "D"d2df a2fd | "A7"egfe "D"fdd2 \
                                   :|2 "D"d2Ad "G"BAGF | "A7"E2AE "D"FDD2 |]
%%center Book03/03081-Rachel_Rae-1.abc

%%sep 1 1 500
%%sep 1 1 500

